X:319
T:B319-  Nanny O
Q:1/4=120
L:1/4
M:C
K:Dm
F/G/|ADA3/2G/|F(E/D/)DC/D/|F3/2G/ A/B/c/A/|d(G/A/)GF/G/|\
A3/2f/ c/A/G/F/|GAf3/2e/|d3/2c/ A/c/G/B/|dD/E/D||A/B/|\
c3/2d/ c/d/d/A/|f(c3/4d/4)cf/e/|d3/2e/ (f/e/)(f/g/)|\
(a/g/)(f/e/) (d/e/)(f/g/)|aAB/A/G/F/|GAf3/2e/|\
d3/2c/ A/c/G/A/|d(D3/4E/4)D|]

